svgs/sharp-solid/grid-horizontal.svg

<svg xmlns="http://www.w3.org/2000/svg" viewBox="0 0 448 512"><!--! Font Awesome Pro 6.6.0 by @fontawesome - https://fontawesome.com License - https://fontawesome.com/license (Commercial License) Copyright 2024 Fonticons, Inc. --><path d="M128 128L0 128 0 256l128 0 0-128zm0 160L0 288 0 416l128 0 0-128zm32-160l0 128 128 0 0-128-128 0zM288 288l-128 0 0 128 128 0 0-128zm32-160l0 128 128 0 0-128-128 0zM448 288l-128 0 0 128 128 0 0-128z"/></svg>

<svg xmlns="http://www.w3.org/2000/svg" viewBox="0 0 448 512"><!--! Font Awesome Pro 6.5.2 by @fontawesome - https://fontawesome.com License - https://fontawesome.com/license (Commercial License) Copyright 2024 Fonticons, Inc. --><path d="M128 128H0V256H128V128zm0 160H0V416H128V288zm32-160V256H288V128H160zM288 288H160V416H288V288zm32-160V256H448V128H320zM448 288H320V416H448V288z"/></svg>
